X:1
T:Title
%%score [ ( 1 2 ) ( 3 4 ) ] { ( 5 6 ) | ( 7 8 ) }
L:1/8
Q:1/4=120
M:4/4
K:E
V:1 treble nm="Midi_74"
V:2 treble 
V:3 bass nm="Midi_74"
V:4 bass 
V:5 treble nm="Org."
V:6 treble 
V:7 bass 
V:8 bass 
V:1
 E8 | F4 A4 | G8 || F8 | G4 B4 | c4 e4 | d8 || e8 | =d4 B4 | c8 || c8 | B4 G4 | %12
"^William Henry Havergal\n(1793-1870)" F4 D4 | E8 |] %14
V:2
 E8 | E4 D4 | E8 || F8 | E4 F4 | G4 F4 | F8 || G8 | A4 E4 | E8 || E8 | E4 E4 | C4 B,4 | B,8 |] %14
V:3
 B,8 | C4 B,4 | B,8 || B,8 | B,4 B,4 | B,4 ^A,4 | B,8 || B,8 | A,4 B,4 | A,8 || A,8 | E,4 G,4 | %12
 A,4 A,4 | G,8 |] %14
V:4
 G,,8 | A,,4 B,,4 | E,8 || D,8 | E,4 D,4 | E,4 F,4 | B,8 || E,8 | F,4 G,4 | A,8 || A,,8 | %11
 G,,4 C,4 | A,,4 B,,4 | E,8 |] %14
V:5
 [B,E]8 | F4 A4 | G8 || F8 | G4 B4 | c4 e4 | d8 || e8 | =d4 B4 | c8 || c8 | B4 G4 | F4 D4 | E8 |] %14
V:6
 E8 | [CE]4 [B,D]4 | [B,E]8 || [B,F]8 | E4 F4 | [GB]4 [F^A]4 | [FB]8 || G8 | A4 E4 | [EA]8 || %10
 [EA]8 | E4 E4 | C4 B,4 | B,8 |] %14
V:7
 x8 | x8 | x8 || x8 | x8 | x8 | x8 || x8 | x8 | x8 || x8 | x8 | A,8 | x8 |] %14
V:8
 G,,8 | A,,4 B,,4 | E,8 || D,8 | E,4 D,4 | E,4 F,4 | B,8 || E,8 | F,4 G,4 | A,8 || A,,8 | %11
 G,,4 C,4 | A,,4 B,,4 | [E,G,]8 |] %14

